X:8
T:Pádraig O'Keeffe's
D:Dan Herlihy, The Night of the Fair, track 1(a).
N:Played on the tape with 'An Chóisir'; DH wrote that
N:he got that set from Mikey Duggan in Scartaglin, a
N:fiddle pupil of POK.
Z:ATB
R:slide
M:12/8
L:1/8
K:D
ABc def a2f e2d|cde B2c d2f A3|
ABc def a2f e2d|[1 cde B2c d3 d3:|][2 cde B2c d3 def|]
a3 a2b a2f e2d|cde B2c d2f A3|
a3 a2b a2f e2d|[1 cde B2c d3 def:|][2 cde B2c d3 d3|]
